!!!COM: Stadler, Maximilian
!!!CDT: 1748///-1833///
!!!COA: Haydn, Joseph
!!!OTL@@IT: Gioco filarmonico
!!!OTL@EN: Philharmonic Joke
!!!OTA@@IT: o sia maniera facile per comporre un infinito numero de minuetti e trio anche senza sapere il contrapunto
!!!OTA@EN: or the Art of Composing an Infinite Number of Minutes Without the Least Knowledge of Counterpoint
!!!PDT: 1781///
!!!PPR: Artaria
!!!SML: Gesellschaft der Musikfreundes, Vienna
!!!PPR2: Luigi Marescalchi
!!!PPP2: Napoli
!!!PDT2: 1790///
**kern	**kern	**kern
*Icello	*Ivioln	*Ivioln
*>[A,A,B,B,A]	*>[A,A,B,B,A]	*>[A,A,B,B,A]
*>norep[A,B]	*>norep[A,B]	*>norep[A,B]
*>A	*>A	*>A
*k[]	*k[]	*k[]
*M3/4	*M3/4	*M3/4
*MM120	*MM120	*MM120
!!section:  I
!!measure:  A
!!diceroll: 3
=32	=32	=32
2.C	8.g	8.ee
.	16a	16ff
.	8.f	8.dd
.	16g	16ee
.	4e	4cc
!!section:  I
!!measure:  B
!!diceroll: 8
=60	=60	=60
4BB	2G	8.g
.	.	16b
4GG	.	8.dd
.	.	16ff
4C	4G	4ee
!!section:  I
!!measure:  C
!!diceroll: 4
=158	=158	=158
4F	4c	4a
4FF	4r	12aa
.	.	12gg
.	.	12ff
4r	4r	12ee
.	.	12dd
.	.	12cc
!!section:  I
!!measure:  D
!!diceroll: 11
=61	=61	=61
4r	4e	4g
4GG	4d	4f
4C	4c	4e
!!section:  I
!!measure:  E
!!diceroll: 4
=153	=153	=153
4r	4r	8f#
.	.	8cc
4A	4c	8cc
.	.	8b
4A	4c	8b
.	.	8a
!!section:  I
!!measure:  F
!!diceroll: 5
=2	=2	=2
2.BB	4r	8r
.	.	8d
.	4d	8f#
.	.	8g
.	4g	8b
.	.	8dd
!!section:  I
!!measure:  G
!!diceroll: 8
=21	=21	=21
4D	8a	8a
.	8cc	8ee
4E	8b	8dd
.	8a	8cc
4DD	8g	8b
.	8f#	8a
!!section:  I
!!measure:  H
!!diceroll: 7
=91	=91	=91
8GG	2.g	2.g
8G	.	.
8D	.	.
8BB	.	.
4GG	.	.
*>B	*>B	*>B
!!section:  II
!!measure:  A
!!diceroll: 6
=25	=25	=25
4E	4c#	4g
4r	4r	16gg
.	.	16ff
.	.	16ee
.	.	16dd
4A	4e	4cc#
!!section:  II
!!measure:  B
!!diceroll: 11
=4	=4	=4
4F	4d	8.dd
.	.	16a
4E	4c#	8.g
.	.	16a
4D	4d	4f
!!section:  II
!!measure:  C
!!diceroll: 6
=64	=64	=64
4BB	12B	2g
.	12d	.
.	12g	.
4BB	12B	.
.	12d	.
.	12g	.
4BB	12B	16gg
.	.	16ff
.	12d	.
.	.	16ee
.	12g	.
.	.	16dd
!!section:  II
!!measure:  D
!!diceroll: 9
=166	=166	=166
8E	8cc	8cc
8G	8g	8g
8F	8f	8f
8E	8e	8e
8D	8d	8d
8C	8c	8c
!!section:  II
!!measure:  E
!!diceroll: 5
=67	=67	=67
4C	2.cc	2.cc
4G	.	.
4c	.	.
!!section:  II
!!measure:  F
!!diceroll: 5
=160	=160	=160
4r	4r	12f
.	.	12ff
.	.	12dd
4G	4d	12b
.	.	12dd
.	.	12f
4A	4c	4e
!!section:  II
!!measure:  G
!!diceroll: 7
=23	=23	=23
4F	4c	16a
.	.	16aa
.	.	16gg
.	.	16ff
4G	4c	4ee
4G	4B	4dd
!!section:  II
!!measure:  H
!!diceroll: 9
=111	=111	=111
8C	2.cc	2.cc
8c	.	.
8G	.	.
8E	.	.
4C	.	.
*-	*-	*-
!!!END: 2004/11/01/
